X:1
T:Mi Amore Cadenza
P:AABBCC x 3 or AABBCC x 4
C:Gwommy Anpurpaidh & Felice Debbage, A.S. 48
N:arr. Monique Rio
M:3/4
L:1/8
K:Cmaj clef=G-8
P:A
"C"e3ee2 | "C"e2f2g2 | "Fm"_a3aa2 | "Fm"_a2_b2a2 | \
"C"g3ee2 | "C"e2f2e2 | "G"d6 |  [1 "G"d2g2f2 :|]  [2 "G"d4c2 ::
P:B
"G"B3BB2 | "G"B2A2B2 | "Cm"c3cd2 | "Cm"_e2d2c2 | \
"G"B3BB2 | "G"B2A2B2 | "C"c6 |  [1 "C"c2B2A2 :|]  [2 "C"c4d2 ::
P:C
"C"e4e2 | "F"f4f2 | "C"e3fe2 | "G"d4c2 | \
"C"e3cd2 | "Cm"_e3dc2 | "G"B3AB2 | "C"c6 :|

